X:1
T:[ID 1-138a]
T:[ID 1-138a]
T:Bezeichnung standardisiert: Menuett Menuet
T:Urheber unbekannt Erstbeleg: vor 1767 (Datum in der schriftlichen Quelle) Datum in der hier transkribierten schriftlichen Quelle: 1773
C:Urheber unbekannt
C:Erstbeleg: vor 1767 (Datum in der schriftlichen Quelle)
C:Datum in der hier transkribierten schriftlichen Quelle: 1773
L:1/8
M:3/4
K:G
V:1 treble 
V:1
 g2 gf g2 | d2 d^c d2 | G2 GF G2 | D4 z2 | G2 GB ce | B2 Bd ce | (3dcB edcB | A6 :: fg a2 a2 | %9
 a2 gf ed | ga b2 b2 | b2 ag fe | d3 c Bc | d3 c B2 | (3gfe dcBA | G6 :| %16

